X:0281
M:C
L:1/8
Q:1/4=96
K:E Minor
d>e|g3     a gaba| gdeg    dBAG|B2A2 {B}A2 GA |B2A2 A2
ga |b/a/g ab gdeg| dABG    ABcd|e2E2    E2 DE |G2E2 E2:|

